!!!!SEGMENT: pl-gd--ee-1638--002-024_marenzio-luca--motettorum-pro-festis-totius-anni-in-decollat-s-io-bapt-misit-rex.krn
!!!cenid: 15xx:1027
!!!COM: Marenzio, Luca
!!!COM-rismID: pe30003955
!!!CDT: ~1553-1599/08/22
!!!CNT: Italian
!!!GTL: Motettorum pro festis totius anni
!!!OTL: In decollat. S. Io. Bapt./Misit Rex
!!!OMV: 024
!!!PDT: 1588
!!!AGN:
!!!SMS-siglum: PL-GD
!!!SMS-shelfmark: Ee 1638
!!!SMS-shelfwork: 002-024 G
!!!SMS-variant:
!!!SMS-altvar:
!!!NIFC-rismSourceID: 1001202747
!!!NIFC-rismChildID: 990039238
!!!NIFC-islandoraID: pl-gd:57883
!!!URL-pdf-islandora: https://repozytorium.nifc.pl/islandora/object/pl-gd%3A57883/datastream/PDF/view
!!!URL-scan: https://polish.musicsources.pl/pl/lokalizacje/galeria/klocki-introligatorskie/655 @EN{Scan on Polish Music Sources Website} @PL{Skany w portalu Dziedzictwo Muzyki Polskiej w otwartym dostępie}
!!!ONB-nifc: UWAGA: Cantus: s. 628 (lewa), Altus: s. 476 (lewa), Tenor: s. 324 (lewa), Bassus: s. 172 (lewa)
!!!AIN: 1 alto 1 bass 1 soprn 1 tenor
!!!key:
**kern	**text	**kern	**text	**kern	**text	**kern	**text
*part4	*part4	*part3	*part3	*part2	*part2	*part1	*part1
*staff4	*staff4	*staff3	*staff3	*staff2	*staff2	*staff1	*staff1
*I"BASSVS	*	*I"TENOR	*	*I"ALTVS	*	*I"CANTVS	*
*I'B	*	*I'T	*	*I'A	*	*I'S	*
*ICvox	*	*ICvox	*	*ICvox	*	*ICvox	*
*Ibass	*	*Itenor	*	*Ialto	*	*Isoprn	*
*clefF3	*	*clefC3	*	*clefC2	*	*clefG2	*
*k[b-]	*	*k[b-]	*	*k[b-]	*	*k[b-]	*
*d:	*	*d:	*	*d:	*	*d:	*
*M2/1	*	*M2/1	*	*M2/1	*	*M2/1	*
*met(C|)	*	*met(C|)	*	*met(C|)	*	*met(C|)	*
=1-	=1-	=1-	=1-	=1-	=1-	=1-	=1-
*xywh-#172:1036,542,3505,856	*	*	*	*	*	*	*
*	*	*xywh-#324:1215,330,3419,1060	*	*	*	*	*
*	*	*	*	*xywh-#476:1037,478,3432,924	*	*	*
*	*	*	*	*	*	*xywh-#628:1064,458,3470,923	*
!LO:TX:t=P:problem: w źródle zapisany podwójnie bemol, kolejność: BB- B-	!	!	!	!LO:TX:t=P:problem: w źródle zapisany podwójnie bemol, kolejność: B- b-	!	!	!
1r	.	1.A	Miſ-	00r	.	00r	.
1.D	MI-	.	.	.	.	.	.
.	.	2A/	-sit	.	.	.	.
=2-	=2-	=2-	=2-	=2-	=2-	=2-	=2-
.	.	1.d	rex	.	.	.	.
2D/	-ſit	.	.	.	.	.	.
1.F	rex	.	.	.	.	.	.
.	.	2c/	in-	.	.	.	.
=3-	=3-	=3-	=3-	=3-	=3-	=3-	=3-
.	.	2.f\	-cre-	1r	.	0r	.
2D/	in-	.	.	.	.	.	.
.	.	4f\	-du-	.	.	.	.
2.A\	-cre-	1e	-lus	2r	.	.	.
.	.	.	.	2a\	Mi-	.	.
4A\	-du-	.	.	.	.	.	.
=4-	=4-	=4-	=4-	=4-	=4-	=4-	=4-
1G	-lus	0r	.	1b-	-ni-	2r	.
.	.	.	.	.	.	2dd\	mi-
1r	.	.	.	1a	-ſtros	2ff\	-niſ-
.	.	.	.	.	.	2ee\	-tros
=5-	=5-	=5-	=5-	=5-	=5-	=5-	=5-
0r	.	1r	.	2.a\	de-	2.ff\	de-
.	.	.	.	4g\	-teſ-	4ee\	-teſ-
.	.	2r	.	2f/	-ta-	2dd\	-ta-
*	*ij	*	*ij	*	*	*	*
.	.	1A/	Mis-	2e/	-bi-	2cc#X\	-bi-
=6-	=6-	=6-	=6-	=6-	=6-	=6-	=6-
1.D	Mi-	.	.	2.d/	-les	1dd	-les
.	.	2A/	-sit	.	.	.	.
.	.	.	.	4e/	.	.	.
.	.	1.d	rex	0f	.	1.a	Mi-
2D/	-sit	.	.	.	.	.	.
=7-	=7-	=7-	=7-	=7-	=7-	=7-	=7-
1.F	rex	.	.	.	.	.	.
.	.	2c/	in-	.	.	2a/	-ſit
.	.	2.f\	-cre-	2r	.	1.dd	rex
!	!	!	!	!LO:SIC:v:t=custos A	!	!	!
2D/	in-	.	.	1a\	Mi-	.	.
!	!	!LO:SIC:v:t=custos e	!	!	!	!	!
.	.	4f\	-du-	.	.	.	.
*	*	*	*	*xywh-#476:1006,1183,3479,752	*	*	*
*	*	*xywh-#324:1254,1030,3380,914	*	*	*	*	*
!	!	!LO:LB:g=original	!	!LO:LB:g=original	!	!	!
=8-	=8-	=8-	=8-	=8-	=8-	=8-	=8-
2.A\	-cre-	2e\	-lus	.	.	.	.
*	*	*	*Xij	*	*	*	*
.	.	2a\	in-	2A/	-ſit	2ccny\	in-
!LO:SIC:v:t=custos D	!	!	!	!	!	!	!
4A\	-du-	.	.	.	.	.	.
*xywh-#172:1083,1195,3497,762	*	*	*	*	*	*	*
!LO:LB:g=original	!	!	!	!	!	!	!
1D	-lus	2.a\	-cre-	1.d	rex	2.ff\	-cre-
!	!	!	!	!	!	!LO:SIC:v:t=custos ee	!
.	.	4a\	-du-	.	.	4ff\	-du-
*	*	*	*	*	*	*xywh-#628:1119,1180,3431,714	*
!	!	!	!	!	!	!LO:LB:g=original	!
*	*Xij	*	*	*	*	*	*
=9-	=9-	=9-	=9-	=9-	=9-	=9-	=9-
1A	mi-	1a	-lus	.	.	2ee\	-lus
.	.	.	.	2c/	in-	1ff	in-
1B-	-niſ-	2r	.	2.f\	-cre-	.	.
.	.	2d\	mi-	.	.	2.dd\	-cre-
.	.	.	.	4f\	-du-	.	.
=10-	=10-	=10-	=10-	=10-	=10-	=10-	=10-
1A	-tros	2f\	-niſ-	1a	-lus	.	.
.	.	.	.	.	.	4dd\	-du-
.	.	2e\	-tros	.	.	2cc#X\	-lus
2.d\	de-	2.f\	de-	1r	.	1r	.
4c\	-teſ-	4e\	-teſ-	.	.	.	.
=11-	=11-	=11-	=11-	=11-	=11-	=11-	=11-
2B-\	-ta-	2d\	-ta-	2r	.	1r	.
2A\	-bi-	2c#X/	-bi-	2a\	mi-	.	.
1G	-les	1d	-les	1b-	-ni-	2r	.
.	.	.	.	.	.	2dd\	mi-
=12-	=12-	=12-	=12-	=12-	=12-	=12-	=12-
0r	.	00r	.	1a	-ſtros	2ff\	-niſ-
.	.	.	.	.	.	2ee\	-tros
.	.	.	.	2.a\	de-	2.ff\	de-
.	.	.	.	4g\	-teſ-	4ee\	-teſ-
=13-	=13-	=13-	=13-	=13-	=13-	=13-	=13-
1r	.	.	.	2f\	-ta-	2dd\	-ta-
.	.	.	.	2e/	-bi-	2cc#X\	-bi-
1.D	mi-	.	.	2.d/	-les	2dd\	-les
.	.	.	.	.	.	1a/	Mi-
.	.	.	.	4e/	.	.	.
=14-	=14-	=14-	=14-	=14-	=14-	=14-	=14-
.	.	1r	.	1f	.	.	.
2D/	-ſit	.	.	.	.	2a/	-ſit
1.G	rex	1d	Mi-	1r	.	1.b-	rex
=15-	=15-	=15-	=15-	=15-	=15-	=15-	=15-
!	!	!	!	!LO:SIC:v:t=custos d	!	!	!
.	.	2d\	-ſot	1d	mi-	.	.
!	!	!	!	!	!	!LO:SIC:v:t=custos dd	!
2F/	in-	1f	rex	.	.	2a/	in-
*	*	*	*	*	*	*xywh-#628:1080,1723,3493,722	*
*	*	*	*	*xywh-#476:966,1732,3495,736	*	*	*
!	!	!	!	!LO:LB:g=original	!	!LO:LB:g=original	!
2.B-\	-cre-	.	.	2d/	-ſit	2.dd\	-cre-
!	!	!LO:SIC:v:t=custos a	!	!	!	!	!
.	.	2d\	in-	1g\	rex	.	.
4B-\	-du-	.	.	.	.	4dd\	-du-
*	*	*xywh-#324:1185,1568,3434,899	*	*	*	*	*
!	!	!LO:LB:g=original	!	!	!	!	!
=16-	=16-	=16-	=16-	=16-	=16-	=16-	=16-
1A	-lus	2.a\	-cre-	.	.	1ccny	-lus
.	.	.	.	2f\	in-	.	.
.	.	4a\	-du-	.	.	.	.
1G	mi-	1d	-lus	2.b-\	-cre-	2r	.
.	.	.	.	.	.	2dd\	mi-
.	.	.	.	4b-\	-du-	.	.
=17-	=17-	=17-	=17-	=17-	=17-	=17-	=17-
!LO:SIC:v:t=custos c	!	!	!	!	!	!	!
2d\	-ni-	0r	.	0a	-lus	2ff\	-niſ-
*xywh-#172:1067,1760,3520,707	*	*	*	*	*	*	*
!LO:LB:g=original	!	!	!	!	!	!	!
2c\	-ſtros	.	.	.	.	2ee\	-tros
2.d\	de-	.	.	.	.	2.ff\	de-
4c\	-teſ-	.	.	.	.	4ee\	-teſ-
=18-	=18-	=18-	=18-	=18-	=18-	=18-	=18-
2B-\	-ta-	1r	.	2r	.	2dd\	-ta-
2A\	-bi-	.	.	2a\	mi-	2cc#X\	-bi-
*lig	*	*	*	*	*	*	*
1G	-les	2r	.	1b-	-ni-	1dd	-les
.	.	2d\	mi-	.	.	.	.
=19-	=19-	=19-	=19-	=19-	=19-	=19-	=19-
1A	.	2f\	-niſ-	1a	-ſrtos	00r	.
.	.	2e\	-tros	.	.	.	.
*Xlig	*	*	*	*	*	*	*
1r	.	2.f\	de-	2.a\	de-	.	.
.	.	4e\	-teſ-	4g\	-teſ-	.	.
=20-	=20-	=20-	=20-	=20-	=20-	=20-	=20-
2r	.	2d\	-ta-	2f\	-ta-	.	.
2A\	et	2c#X/	-bi-	2e/	-bi-	.	.
1B-	am-	1d	-les	4d/	-les	.	.
.	.	.	.	4e/	.	.	.
.	.	.	.	4f\	.	.	.
.	.	.	.	4d/	.	.	.
=21-	=21-	=21-	=21-	=21-	=21-	=21-	=21-
2B-\	-pu-	1r	.	0g	.	0r	.
1c	-ta-	.	.	.	.	.	.
.	.	1e	et	.	.	.	.
2c\	-ri	.	.	.	.	.	.
=22-	=22-	=22-	=22-	=22-	=22-	=22-	=22-
2.d\	iuſ-	1f	am-	0r	.	1a	et
4c\	.	.	.	.	.	.	.
4B-\	.	2f\	-pu-	.	.	1b-	am-
4A\	.	.	.	.	.	.	.
4G\	.	1g\	-ta-	.	.	.	.
4F/	.	.	.	.	.	.	.
=23-	=23-	=23-	=23-	=23-	=23-	=23-	=23-
!LO:SIC:v:t=custos C	!	!	!	!LO:SIC:v:t=custos a	!	!	!
2E-X/	.	.	.	1r	.	2b-\	-pu-
*xywh-#172:1114,2334,3473,675	*	*	*	*	*	*	*
!LO:LB:g=original	!	!	!	!	!	!	!
2C/	-ſit	2g\	-ri	.	.	1ccny	-ta-
*	*	*	*	*xywh-#476:880,2249,3597,775	*	*	*
!	!	!	!	!LO:LB:g=original	!	!	!
1F	ca-	2.a\	iuſ-	2r	.	.	.
.	.	.	.	2a\	et	2cc\	-ri
!	!	!LO:SIC:v:t=custos f	!	!	!	!	!
.	.	4g\	.	.	.	.	.
*	*	*xywh-#324:1131,2182,3480,829	*	*	*	*	*
!	!	!LO:LB:g=original	!	!	!	!	!
=24-	=24-	=24-	=24-	=24-	=24-	=24-	=24-
2BB-/	-put	4f\	.	1b-	am-	2.dd\	iuſ-
.	.	4e\	.	.	.	.	.
2BB-/	et	1d	.	.	.	.	.
!	!	!	!	!	!	!LO:SIC:v:t=custos b	!
.	.	.	.	.	.	4cc\	.
*	*	*	*	*	*	*xywh-#628:1095,2267,3447,729	*
!	!	!	!	!	!	!LO:LB:g=original	!
2B-\	am-	.	.	2f\	-pu-	4b-\	.
.	.	.	.	.	.	4a/	.
2B-\	-pu-	2d\	-ſit	1g\	-ta-	4g/	.
.	.	.	.	.	.	4f/	.
=25-	=25-	=25-	=25-	=25-	=25-	=25-	=25-
1c	-ta-	2r	.	.	.	4e/	.
.	.	.	.	.	.	4c/	.
.	.	1e	et	2g\	-ri	1cc	.
2c\	-ri	.	.	2.a\	iuſ-	.	.
2.d\	iuſ-	1f\	am-	.	.	2a/	-ſit
.	.	.	.	4g\	.	.	.
=26-	=26-	=26-	=26-	=26-	=26-	=26-	=26-
.	.	.	.	4f\	.	1r	.
4c\	.	.	.	4e/	.	.	.
4B-\	.	2f\	-pu-	4d/	.	.	.
4A\	.	.	.	4c/	.	.	.
2G\	.	1g	-ta-	4B-/	.	2r	.
.	.	.	.	4A/	.	.	.
2C/	-ſit	.	.	2G/	.	2ee\	et
=27-	=27-	=27-	=27-	=27-	=27-	=27-	=27-
1F	ca-	2cny/	-ri	1A	-ſit	1ff	am-
.	.	2.d\	iuſ-	.	.	.	.
1BB-	-put	.	.	1d	ca-	2ff\	-pu-
.	.	4c/	.	.	.	.	.
.	.	4B-/	.	.	.	1gg\	-ta-
.	.	4A/	.	.	.	.	.
=28-	=28-	=28-	=28-	=28-	=28-	=28-	=28-
1C	Io-	2G/	.	2e/	-put	.	.
.	.	2G/	-ſit	2e/	Io-	2cc\	-ri
0G	-an-	1B-	ca-	1g	-an-	2.dd\	iuſ-
.	.	.	.	.	.	4cc\	.
=29-	=29-	=29-	=29-	=29-	=29-	=29-	=29-
!	!	!	!	!LO:SIC:v:t=custos b	!	!	!
.	.	2d\	-put	2g\	-nis	4b-/	.
.	.	.	.	.	.	4a/	.
*	*	*	*	*xywh-#476:998,2907,3464,650	*	*	*
!	!	!	!	!LO:LB:g=original	!	!	!
.	.	2d\	Io-	2b-\	Bap-	2g/	.
1.F	-nis	2f\	-an-	1.a	-ti-	1cc	-ſit
!	!	!LO:SIC:v:t=custos A	!	!	!	!	!
.	.	2c/	-nis	.	.	.	.
*	*	*xywh-#324:1131,2620,3434,968	*	*	*	*	*
!	!	!LO:LB:g=original	!	!	!	!	!
=30-	=30-	=30-	=30-	=30-	=30-	=30-	=30-
!	!	!	!	!	!	!LO:SIC:v:t=custos ee	!
.	.	2A/	Bap-	.	.	1r	.
!LO:SIC:v:t=custos A	!	!	!	!	!	!	!
2G\	Ba-	2.d\	-ti-	4g\	.	.	.
.	.	.	.	4f\	.	.	.
*	*	*	*	*	*	*xywh-#628:1095,2779,3454,722	*
*xywh-#172:1114,2837,3442,738	*	*	*	*	*	*	*
!LO:LB:g=original	!	!	!	!	!	!LO:LB:g=original	!
1A	-ptiſ-	.	.	1e	.	2r	.
.	.	8c#X/	.	.	.	.	.
!	!	!LO:N:acc=#	!	!	!	!	!
.	.	8Bn/	.	.	.	.	.
*	*	*	*	*	*	*	*ij
.	.	2c#X/	.	.	.	2ee\	et
=31-	=31-	=31-	=31-	=31-	=31-	=31-	=31-
2D/	-tæ	0d	-ſtæ	1a	-ſtæ	1ff	am-
4d\	iuſ-	.	.	.	.	.	.
4c\	.	.	.	.	.	.	.
4B-\	.	.	.	1r	.	2ff\	-pu-
4A\	.	.	.	.	.	.	.
2G\	.	.	.	.	.	1gg\	-ta-
=32-	=32-	=32-	=32-	=32-	=32-	=32-	=32-
1C	-ſit	2r	.	1e	et	.	.
.	.	2cny/	et	.	.	2gg\	-ri
1r	.	1d	am-	1f	am-	2.dd\	ius-
.	.	.	.	.	.	4cc\	.
=33-	=33-	=33-	=33-	=33-	=33-	=33-	=33-
0r	.	2d\	-pu-	2f\	-pu-	4b-/	.
.	.	.	.	.	.	4a/	.
.	.	1e	-ta-	1c	-ta-	2g/	.
.	.	.	.	.	.	1c	-sit
.	.	2e\	-ri	2g\	-ri	.	.
*	*	*	*	*	*	*	*Xij
=34-	=34-	=34-	=34-	=34-	=34-	=34-	=34-
1F	et	4f\	iuſ-	4a\	iuſ-	2r	.
.	.	4e\	.	4g\	.	.	.
.	.	4d\	.	4f\	.	2a/	et
.	.	4c/	.	4e/	.	.	.
1G	am-	4B-y/	.	1d	.	1b-	am-
.	.	4A/	.	.	.	.	.
.	.	2G/	.	.	.	.	.
=35-	=35-	=35-	=35-	=35-	=35-	=35-	=35-
!	!	!LO:SIC:v:t=custos e	!	!	!	!	!
2G\	-pu-	2g\	-ſit	1e	-ſit	2b-/	-pu-
*	*	*xywh-#324:1139,3220,3427,868	*	*	*	*	*
!	!	!LO:LB:g=original	!	!	!	!	!
1A	-ta-	1e	et	.	.	1cc	-ta-
.	.	.	.	1a	ca-	.	.
2A\	-ri	2f\	am-	.	.	2cc\	-ri
=36-	=36-	=36-	=36-	=36-	=36-	=36-	=36-
!	!	!	!	!LO:SIC:v:t=custos c	!	!	!
2.B-\	iuſ-	2f\	-pu-	1d	-put	2.dd\	iuſ-
.	.	1g	-ta-	.	.	.	.
4A\	.	.	.	.	.	4cc\	.
*	*	*	*	*xywh-#476:974,3354,3479,736	*	*	*
!	!	!	!	!LO:LB:g=original	!	!	!
4G\	.	.	.	2r	.	4b-/	.
4F/	.	.	.	.	.	4a/	.
!	!	!	!	!	!	!LO:SIC:v:t=custos f	!
2E-X/	.	2g\	-ri	2c/	et	2g/	.
*	*	*	*	*	*	*xywh-#628:1119,3276,3392,854	*
!	!	!	!	!	!	!LO:LB:g=original	!
=37-	=37-	=37-	=37-	=37-	=37-	=37-	=37-
!LO:SIC:v:t=custos A	!	!	!	!	!	!	!
2D/	-ſit	2.a\	iuſ-	1.f	am-	2f/	-ſit
*xywh-#172:1114,3387,3403,723	*	*	*	*	*	*	*
!LO:LB:g=original	!	!	!	!	!	!	!
2A\	et	.	.	.	.	2cc\	et
.	.	4g\	.	.	.	.	.
1B-	am-	4f\	.	.	.	1dd	am-
.	.	4e\	.	.	.	.	.
.	.	1d\	.	2f\	-pu-	.	.
=38-	=38-	=38-	=38-	=38-	=38-	=38-	=38-
2B-\	-pu-	.	.	1g	-ta-	2dd\	-pu-
1c	-ta-	2g\	-ſit	.	.	1ee	-ta-
.	.	2r	.	2g\	-ri	.	.
2c\	-ri	2e\	et	2.a\	iuſ-	2ee\	-ri
=39-	=39-	=39-	=39-	=39-	=39-	=39-	=39-
2.d\	iuſ-	1f	am-	.	.	1a	et
.	.	.	.	4g\	.	.	.
.	.	.	.	4f\	.	.	.
4c\	.	.	.	4e/	.	.	.
4B-\	.	2f\	-pu-	1.d	.	1b-	am-
4A\	.	.	.	.	.	.	.
1G\	.	1g\	-ta-	.	.	.	.
=40-	=40-	=40-	=40-	=40-	=40-	=40-	=40-
.	.	.	.	.	.	2b-/	-pu-
2C/	-ſit	2g\	-ri	2e/	-ſit	1cc	-ta-
1F	ca-	2.a\	iuſ-	2.f\	ca-	.	.
.	.	.	.	.	.	2cc\	-ri
.	.	4g\	.	4e/	.	.	.
=41-	=41-	=41-	=41-	=41-	=41-	=41-	=41-
1BB-	-put	4f\	.	4d/	.	4dd\	iuſ-
.	.	4e\	.	4e/	.	4cc\	.
!	!	!LO:SIC:v:t=custos G	!	!	!	!	!
.	.	2d\	.	1f	.	4b-/	.
.	.	.	.	.	.	4a/	.
*	*	*xywh-#324:1177,3819,3380,845	*	*	*	*	*
!	!	!LO:LB:g=original	!	!	!	!	!
0C	Io-	1G	-ſit	.	.	1g	.
.	.	.	.	4e/	.	.	.
.	.	.	.	4d/	.	.	.
=42-	=42-	=42-	=42-	=42-	=42-	=42-	=42-
.	.	1g	ca-	2.e/	.	2c/	-ſit
.	.	.	.	.	.	1cc	ca-
!	!	!	!	!LO:SIC:v:t=custos g	!	!	!
.	.	.	.	4f\	.	.	.
*	*	*	*	*xywh-#476:1045,3926,3401,752	*	*	*
!	!	!	!	!LO:LB:g=original	!	!	!
0G	-an-	1.d	-put	1g	.	.	.
.	.	.	.	.	.	2b-/	-put
=43-	=43-	=43-	=43-	=43-	=43-	=43-	=43-
.	.	.	.	2d/	-put	2g/	Io-
.	.	2d\	Io-	2b-\	Io-	1dd	-an-
1.F	-nis	1f	-an-	1.a	-an-	.	.
.	.	.	.	.	.	1cc\	-nis
=44-	=44-	=44-	=44-	=44-	=44-	=44-	=44-
.	.	1d	-nis	.	.	.	.
2G\	Bap-	.	.	1g	-nis	2b-/	Bap-
0.A	-tiſ-	2c#X/	Bap-	.	.	0.a	-tiſ-
.	.	1d\	-ti-	2f\	Bap-	.	.
=45-	=45-	=45-	=45-	=45-	=45-	=45-	=45-
.	.	.	.	0e	-tiſ-	.	.
.	.	4c#X/	.	.	.	.	.
!	!	!LO:N:acc=#	!	!	!	!	!
.	.	4Bn/	.	.	.	.	.
.	.	1c#X	.	.	.	.	.
=46-	=46-	=46-	=46-	=46-	=46-	=46-	=46-
00D	-tæ.	00d	-ſtæ.	00f#X	-tæ.	00a	-tæ.
==	==	==	==	==	==	==	==
*-	*-	*-	*-	*-	*-	*-	*-
!!!system-decoration: [(s1,s2,s3,s4)]
!!!ENC: Andrzej Gręziak
!!!END: 2022-07-02
!!!ENC: Jan Barakat
!!!END: 2022-07-08
!!!YEC: Copyright 2022 Narodowy Instytut Fryderyka Chopina (https://polishscores.org)
!!!YEM: License CC-BY-4.0 (https://creativecommons.org/licenses/by/4.0)
!!!IIIF: https://repozytorium.nifc.pl/islandora/object/pl-gd%3A57883/datastream/IIIF/view
!!!ENC-iiif: Lidia Bialucha
!!!END-iiif: 2022-09-11
